src/scalable/mimetypes/application-pgp-keys.svg

<?xml version="1.0" encoding="UTF-8" standalone="no"?>
<svg
   xmlns:dc="http://purl.org/dc/elements/1.1/"
   xmlns:cc="http://creativecommons.org/ns#"
   xmlns:rdf="http://www.w3.org/1999/02/22-rdf-syntax-ns#"
   xmlns:svg="http://www.w3.org/2000/svg"
   xmlns="http://www.w3.org/2000/svg"
   xmlns:xlink="http://www.w3.org/1999/xlink"
   xmlns:sodipodi="http://sodipodi.sourceforge.net/DTD/sodipodi-0.dtd"
   xmlns:inkscape="http://www.inkscape.org/namespaces/inkscape"
   width="48px"
   height="48px"
   viewBox="0 0 48 48"
   version="1.1"
   id="svg19"
   sodipodi:docname="application-pgp-keys.svg"
   inkscape:version="0.92.2 2405546, 2018-03-11">
  <metadata
     id="metadata23">
    <rdf:RDF>
      <cc:Work
         rdf:about="">
        <dc:format>image/svg+xml</dc:format>
        <dc:type
           rdf:resource="http://purl.org/dc/dcmitype/StillImage" />
      </cc:Work>
    </rdf:RDF>
  </metadata>
  <sodipodi:namedview
     pagecolor="#ffffff"
     bordercolor="#666666"
     borderopacity="1"
     objecttolerance="10"
     gridtolerance="10"
     guidetolerance="10"
     inkscape:pageopacity="0"
     inkscape:pageshadow="2"
     inkscape:window-width="995"
     inkscape:window-height="594"
     id="namedview21"
     showgrid="false"
     inkscape:zoom="4.9166667"
     inkscape:cx="-2.6440676"
     inkscape:cy="24"
     inkscape:window-x="611"
     inkscape:window-y="65"
     inkscape:window-maximized="0"
     inkscape:current-layer="svg19" />
  <!-- Generator: Sketch 41.2 (35397) - http://www.bohemiancoding.com/sketch -->
  <title
     id="title2">application-pgp-keys</title>
  <desc
     id="desc4">Created with Sketch.</desc>
  <g
     id="g829">
    <rect
       rx="2"
       ry="1.9047618"
       y="4"
       x="6"
       height="40"
       width="36"
       id="rect834"
       style="opacity:1;fill:#8bc34a;fill-opacity:1;stroke:none;stroke-width:0.92582005;stroke-linecap:round;stroke-linejoin:round;stroke-miterlimit:4;stroke-dasharray:none;stroke-opacity:0.05882353;paint-order:markers stroke fill" />
    <path
       inkscape:connector-curvature="0"
       id="rect866"
       d="M 42,17.242188 A 40,40 0 0 1 23.494141,44 H 40 c 1.108,0 2,-0.849059 2,-1.904297 z"
       style="opacity:0.15;fill:url(#linearGradient877);fill-opacity:1;stroke:none;stroke-width:0.92582005;stroke-linecap:round;stroke-linejoin:round;stroke-miterlimit:4;stroke-dasharray:none;stroke-opacity:0.05882353;paint-order:markers stroke fill" />
  </g>
  <defs
     id="defs11">
    <linearGradient
       inkscape:collect="always"
       xlink:href="#linearGradient875"
       id="linearGradient877"
       x1="32.74707"
       y1="44"
       x2="32.74707"
       y2="17.242188"
       gradientUnits="userSpaceOnUse" />
    <linearGradient
       inkscape:collect="always"
       id="linearGradient875">
      <stop
         style="stop-color:#000000;stop-opacity:1;"
         offset="0"
         id="stop871" />
      <stop
         style="stop-color:#000000;stop-opacity:0;"
         offset="1"
         id="stop873" />
    </linearGradient>
  </defs>
  <g
     id="Page-1"
     stroke="none"
     stroke-width="1"
     fill="none"
     fill-rule="evenodd">
    <g
       id="application-pgp-keys">
      <path
         d="M24,30.4793294 C24.7766954,30.4793294 25.4063314,29.8496934 25.4063314,29.072998 C25.4063314,28.2963027 24.7766954,27.6666667 24,27.6666667 C23.2233046,27.6666667 22.5936686,28.2963027 22.5936686,29.072998 C22.5936686,29.8496934 23.2233046,30.4793294 24,30.4793294 Z M24,33.4793294 C21.5664504,33.4793294 19.5936686,31.5065477 19.5936686,29.072998 C19.5936686,26.6394484 21.5664504,24.6666667 24,24.6666667 C26.4335496,24.6666667 28.4063314,26.6394484 28.4063314,29.072998 C28.4063314,31.5065477 26.4335496,33.4793294 24,33.4793294 Z"
         id="Oval-292"
         fill="#FFFFFF" />
      <path
         d="M25.6666667,19.6666667 L25.6666667,25.3311663 C25.6666667,25.8846479 25.2171185,26.3333333 24.6665568,26.3333333 L23.3334432,26.3333333 C22.7810978,26.3333333 22.3333333,25.8897095 22.3333333,25.3311663 L22.3333333,14.0021671 C22.3333333,13.4486855 22.7828815,13 23.3334432,13 L24.6665568,13 C25.2189022,13 25.6666667,13.4436239 25.6666667,14.0021671 L25.6666667,14.6666667 L27.3308922,14.6666667 C27.7924777,14.6666667 28.1666667,15.036554 28.1666667,15.5 C28.1666667,15.9602373 27.7839254,16.3333333 27.3308922,16.3333333 L25.6666667,16.3333333 L25.6666667,18 L27.3308922,18 C27.7924777,18 28.1666667,18.3698874 28.1666667,18.8333333 C28.1666667,19.2935706 27.7839254,19.6666667 27.3308922,19.6666667 L25.6666667,19.6666667 Z"
         id="Combined-Shape"
         fill="#FFFFFF" />
    </g>
  </g>
</svg>

<svg xmlns="http://www.w3.org/2000/svg" xmlns:xlink="http://www.w3.org/1999/xlink" width="48" height="48"><g paint-order="markers stroke fill"><rect rx="2" ry="1.905" y="4" x="6" height="40" width="36" fill="#8bc34a"/><path d="M42 17.242A40 40 0 0 1 23.494 44H40c1.108 0 2-.85 2-1.904z" opacity=".15" fill="url(#a)"/></g><defs><linearGradient xlink:href="#b" id="a" x1="32.747" y1="44" x2="32.747" y2="17.242" gradientUnits="userSpaceOnUse"/><linearGradient id="b"><stop offset="0"/><stop offset="1" stop-opacity="0"/></linearGradient></defs><g fill="#FFF" fill-rule="evenodd"><path d="M24 30.48a1.406 1.406 0 1 0 0-2.813 1.406 1.406 0 0 0 0 2.812zm0 3a4.406 4.406 0 1 1 0-8.813 4.406 4.406 0 0 1 0 8.812z"/><path d="M25.667 19.667v5.664c0 .554-.45 1.002-1 1.002h-1.334c-.552 0-1-.443-1-1.002V14.002c0-.553.45-1.002 1-1.002h1.334c.552 0 1 .444 1 1.002v.665h1.664a.833.833 0 1 1 0 1.666h-1.664V18h1.664a.833.833 0 1 1 0 1.667h-1.664z"/></g></svg>
